FINK
CUT[SCHOEN RUNDLICH UND FEIN]
REG[Europa, Mitteleuropa, Deutschland]
KEY[F0169  16  F 3/8]
MEL[12  3_3234  5__
    3_  4_4346  5__
    5_  6_4346  5_
    6__  622123  1__ //] >>
FCT[Liebes - Lied]
